web/public/images/3p-logos/msw.svg

<svg viewBox="0 0 24 24" fill="none" xmlns="http://www.w3.org/2000/svg">
<g clip-path="url(#clip0_350_1897)">
<path fill-rule="evenodd" clip-rule="evenodd" d="M8.27429 7.71947C8.20801 7.64585 8.11684 7.59935 8.01833 7.58892C7.90756 7.57718 7.80612 7.60933 7.72376 7.67591C7.64148 7.74243 7.58882 7.83478 7.57701 7.9454C7.577 7.94551 7.57703 7.9453 7.57701 7.9454L6.60973 17.1122L15.8238 17.1047C15.9228 17.1046 16.0184 17.0679 16.092 17.0016C16.1748 16.9271 16.2187 16.8302 16.2242 16.7244C16.2297 16.6186 16.1962 16.5176 16.1217 16.4349L8.27429 7.71947ZM8.4535 3.48076C9.56606 3.59861 10.5957 4.12377 11.3443 4.95519L19.1917 13.6706C20.0288 14.6003 20.4102 15.7854 20.3497 16.9406C20.2892 18.0958 19.786 19.2346 18.8563 20.0717C18.0248 20.8203 16.9459 21.2349 15.8271 21.2359L5.16502 21.2445C4.38333 21.2452 3.67205 20.9264 3.16126 20.4165C2.65048 19.9065 2.33056 19.1958 2.32992 18.4141L2.32983 18.3045L3.46882 7.51055C3.6006 6.26648 4.227 5.19053 5.12656 4.46329C6.02612 3.73605 7.20943 3.34897 8.4535 3.48076Z" fill="#7A1818"/>
<path fill-rule="evenodd" clip-rule="evenodd" d="M17.1143 16.7516L18.177 6.69056L8.06271 6.6988L17.1143 16.7516ZM17.8009 22.603C17.1056 22.5293 16.462 22.2011 15.9942 21.6815L3.04351 7.29832C2.52046 6.71741 2.282 5.97534 2.31978 5.25456C2.35755 4.53378 2.67227 3.82069 3.25318 3.29764C3.77281 2.82977 4.44713 2.5706 5.14637 2.57003L19.6218 2.55823C20.4035 2.5576 21.1148 2.87635 21.6256 3.38631C22.1364 3.89626 22.4563 4.60703 22.4569 5.38871L22.457 5.49834L20.9163 20.0844C20.834 20.8617 20.4416 21.5351 19.8803 21.9889C19.319 22.4427 18.5783 22.6853 17.8009 22.603Z" fill="#FF6A33"/>
</g>
<defs>
<clipPath id="clip0_350_1897">
<rect width="24" height="24" fill="white"/>
</clipPath>
</defs>
</svg>

<svg fill="none" viewBox="0 0 24 24" xmlns="http://www.w3.org/2000/svg"><clipPath id="a"><path d="M0 0h24v24H0z"/></clipPath><g clip-path="url(#a)" clip-rule="evenodd" fill-rule="evenodd"><path d="M8.274 7.72a.401.401 0 0 0-.697.225l-.967 9.167 9.214-.007a.401.401 0 0 0 .298-.67zm.18-4.24a4.532 4.532 0 0 1 2.89 1.475l7.848 8.716c.837.93 1.218 2.114 1.158 3.27s-.564 2.294-1.494 3.13a4.533 4.533 0 0 1-3.029 1.165l-10.662.009a2.83 2.83 0 0 1-2.835-2.83v-.11L3.469 7.51c.132-1.245.758-2.32 1.658-3.048s2.082-1.114 3.327-.982z" fill="#7a1818"/><path d="M17.114 16.752 18.177 6.69l-10.114.008zm.687 5.851a2.833 2.833 0 0 1-1.807-.921L3.044 7.297a2.83 2.83 0 0 1 .21-4 2.833 2.833 0 0 1 1.892-.728l14.476-.012a2.83 2.83 0 0 1 2.835 2.83v.11l-1.54 14.586a2.83 2.83 0 0 1-3.116 2.519z" fill="#ff6a33"/></g></svg>
